Sources/FrostedUI/Resources/Icons.xcassets/twitter32.imageset/twitter-32.svg

<svg width="32" height="32" viewBox="0 0 32 32" fill="none" xmlns="http://www.w3.org/2000/svg" data-fui-icon="true">
  <path
    d="M21.7717 3.25C23.5982 3.25015 25.263 3.95212 26.4993 5.09473C27.469 4.87407 28.393 4.53504 29.2532 4.0918L29.4006 4.0293C29.7486 3.91369 30.1135 4.00222 30.3665 4.21973C30.6659 4.47734 30.8151 4.92797 30.6184 5.36328C30.4492 5.73756 30.2456 6.09317 30.0139 6.42773C30.2448 6.34407 30.4727 6.25376 30.6965 6.15625L30.8254 6.1123C31.4658 5.95315 32.012 6.68399 31.6174 7.26562C30.82 8.44127 29.8266 9.48289 28.6907 10.3457C28.6941 10.4846 28.6965 10.6238 28.6965 10.7627C28.6965 19.1029 22.2466 28.7498 10.4338 28.75C7.22358 28.75 4.20771 27.9288 1.58521 26.4922C1.10093 26.2267 0.99652 25.7027 1.11841 25.3184C1.23731 24.9438 1.60008 24.5924 2.11646 24.6074L2.46899 24.6123C4.51062 24.6123 6.42878 24.0952 8.09692 23.1885C6.14568 22.5651 4.57231 21.1082 3.81372 19.2402C3.59298 18.6966 3.86301 18.2197 4.26782 18C2.56503 16.7618 1.45643 14.7706 1.4563 12.5176C1.4563 11.9306 2.05786 11.5636 2.57056 11.7881C1.89763 10.7369 1.50716 9.49058 1.50708 8.1543C1.50708 7.0495 1.77575 6.00358 2.25024 5.07812L2.32056 4.95996C2.67437 4.4459 3.38062 4.42386 3.80103 4.80273L3.88696 4.88965L4.16235 5.20117C6.86158 8.17389 10.6372 10.1781 14.8918 10.6191C14.8766 10.4349 14.8674 10.2488 14.8674 10.0605C14.8674 6.28784 17.9703 3.25 21.7717 3.25ZM21.7717 4.75C18.7767 4.75 16.3674 7.13811 16.3674 10.0605C16.3674 10.4746 16.4156 10.8782 16.5061 11.2695L16.7297 12.2373L15.7385 12.1885C10.8251 11.945 6.42642 9.79011 3.28833 6.46387C3.10664 6.99561 3.00708 7.5638 3.00708 8.1543C3.00722 9.99015 3.95584 11.6167 5.40649 12.5713L7.62817 14.0322L4.96997 13.9473C4.31074 13.926 3.67437 13.8113 3.07349 13.6201C3.51251 15.6591 5.14422 17.2738 7.23071 17.71C7.24022 17.7119 7.2505 17.7139 7.26001 17.7158L7.29321 17.7227L9.6145 18.1953L7.44458 19.1445C7.30362 19.2063 7.13606 19.2448 7.00806 19.2695C6.86338 19.2975 6.69827 19.3211 6.53052 19.3408C6.22089 19.3772 5.87016 19.4009 5.56958 19.4043C6.49295 20.9399 8.18268 21.9848 10.1272 22.0186L12.2659 22.0557L10.5725 23.3623C8.73569 24.7792 6.50636 25.7227 4.07544 26.0146C6.03568 26.8089 8.18113 27.25 10.4338 27.25C21.2668 27.2498 27.1965 18.4344 27.1965 10.7627C27.1965 10.5153 27.1904 10.2637 27.179 10.0137L27.1604 9.60547L27.4934 9.36914C27.9326 9.05653 28.348 8.71225 28.7385 8.34375C28.5118 8.39133 28.283 8.43566 28.052 8.47168C27.5768 8.54575 27.2363 8.23046 27.1233 7.9209C27.0128 7.61798 27.0647 7.18318 27.4358 6.92383L27.7239 6.70801C27.9492 6.5273 28.157 6.32665 28.3499 6.11328C27.7225 6.33806 27.0732 6.51957 26.4055 6.64844L26.0042 6.72559L25.7209 6.42969C24.735 5.3977 23.3305 4.75016 21.7717 4.75Z"
    fill="currentColor"
  />
</svg>

<svg xmlns="http://www.w3.org/2000/svg" width="32" height="32" fill="none" data-fui-icon="true" viewBox="0 0 32 32"><path fill="currentColor" d="M21.772 3.25a6.95 6.95 0 0 1 4.727 1.845c.97-.22 1.894-.56 2.754-1.003l.148-.063a1 1 0 0 1 .965.19c.3.258.45.709.252 1.144q-.255.563-.604 1.065.346-.126.683-.272l.128-.044c.64-.159 1.187.572.792 1.154a13.1 13.1 0 0 1-2.926 3.08q.005.209.006.417c0 8.34-6.45 17.987-18.263 17.987-3.21 0-6.226-.821-8.849-2.258a.99.99 0 0 1-.467-1.174c.12-.374.482-.726.998-.71l.353.004c2.042 0 3.96-.517 5.628-1.423a6.89 6.89 0 0 1-4.283-3.949c-.221-.543.049-1.02.454-1.24-1.703-1.238-2.812-3.23-2.812-5.482a.796.796 0 0 1 1.115-.73 6.7 6.7 0 0 1-1.064-3.634c0-1.104.269-2.15.743-3.076l.07-.118c.354-.514 1.06-.536 1.481-.157l.086.087.275.311a16.82 16.82 0 0 0 10.73 5.418 7 7 0 0 1-.025-.559c0-3.772 3.103-6.81 6.905-6.81m0 1.5c-2.995 0-5.405 2.388-5.405 5.31q.002.622.14 1.21l.223.967-.992-.049a18.33 18.33 0 0 1-12.45-5.724 5.2 5.2 0 0 0-.28 1.69c0 1.836.948 3.463 2.398 4.417l2.222 1.461-2.658-.085a7 7 0 0 1-1.897-.327c.44 2.04 2.071 3.654 4.158 4.09l.029.006.033.007 2.321.472-2.17.95c-.14.061-.308.1-.436.125a9.567 9.567 0 0 1-1.438.135 5.42 5.42 0 0 0 4.557 2.614l2.139.037-1.694 1.306a13.2 13.2 0 0 1-6.497 2.653 16.9 16.9 0 0 0 6.359 1.235c10.833 0 16.763-8.816 16.763-16.487q0-.373-.018-.75l-.019-.408.333-.236c.44-.312.855-.657 1.245-1.025q-.34.072-.686.128a.85.85 0 0 1-.929-.551.855.855 0 0 1 .313-.997l.288-.216c.225-.18.433-.381.626-.595a13 13 0 0 1-1.945.535l-.4.078-.284-.296a5.45 5.45 0 0 0-3.95-1.68"/></svg>
